public/assets/images/close.svg

<?xml version="1.0" encoding="UTF-8" standalone="no"?>
<!-- Created with Inkscape (http://www.inkscape.org/) -->

<svg
   width="50mm"
   height="50mm"
   viewBox="0 0 50 50"
   version="1.1"
   id="svg5"
   inkscape:version="1.2.1 (9c6d41e4, 2022-07-14)"
   sodipodi:docname="close.svg"
   xmlns:inkscape="http://www.inkscape.org/namespaces/inkscape"
   xmlns:sodipodi="http://sodipodi.sourceforge.net/DTD/sodipodi-0.dtd"
   xmlns="http://www.w3.org/2000/svg"
   xmlns:svg="http://www.w3.org/2000/svg">
  <sodipodi:namedview
     id="namedview7"
     pagecolor="#ffffff"
     bordercolor="#000000"
     borderopacity="0.25"
     inkscape:showpageshadow="2"
     inkscape:pageopacity="0.0"
     inkscape:pagecheckerboard="0"
     inkscape:deskcolor="#d1d1d1"
     inkscape:document-units="mm"
     showgrid="false"
     inkscape:zoom="1.8797454"
     inkscape:cx="14.363648"
     inkscape:cy="94.16169"
     inkscape:window-width="1309"
     inkscape:window-height="684"
     inkscape:window-x="39"
     inkscape:window-y="38"
     inkscape:window-maximized="0"
     inkscape:current-layer="layer1" />
  <defs
     id="defs2" />
  <g
     inkscape:label="Layer 1"
     inkscape:groupmode="layer"
     id="layer1">
    <path
       id="rect3019"
       style="fill:#505275;fill-opacity:1;stroke:#effeda;stroke-width:0;stroke-linecap:round;stroke-linejoin:round"
       d="M 2.4140501,2.8424478 2.7889109,7.6793245 8.2732742,13.163688 20.558203,25.448617 8.3565146,37.650306 2.8721513,43.13467 l -0.4581012,4.753636 4.8374354,-0.374861 5.4838055,-5.484363 12.201688,-12.20169 12.201689,12.20169 5.484363,5.484363 4.836878,0.374861 L 47.001807,43.13467 41.517444,37.650306 29.315755,25.448617 41.600684,13.163688 47.085048,7.6793245 47.459909,2.8424478 42.706272,3.3005489 37.221909,8.7849118 24.936979,21.069842 12.65205,8.7849118 7.1676865,3.3005489 Z" />
  </g>
</svg>

<svg width="50mm" height="50mm" viewBox="0 0 50 50" xmlns="http://www.w3.org/2000/svg"><path style="fill:#505275;fill-opacity:1;stroke:#effeda;stroke-width:0;stroke-linecap:round;stroke-linejoin:round" d="M2.414 2.842 2.79 7.68l5.484 5.485 12.285 12.285L8.357 37.65l-5.485 5.485-.458 4.753 4.837-.375 5.484-5.484 12.202-12.202L37.139 42.03l5.484 5.484 4.837.375-.458-4.753-5.485-5.485L29.316 25.45 41.6 13.164l5.484-5.485.375-4.837-4.754.459-5.484 5.484L24.937 21.07 12.652 8.785 7.168 3.3Z"/></svg>
